src/lib/packages/icons/src/assets/line/comment-question.svg

<svg width="24" height="24" viewBox="0 0 24 24" fill="none" xmlns="http://www.w3.org/2000/svg">
<path d="M3.85693 21.75C3.71193 21.75 3.57111 21.7479 3.43311 21.7429C2.93311 21.7309 2.49497 21.411 2.32397 20.928C2.15197 20.442 2.29408 19.9131 2.68408 19.5811C3.61608 18.8291 3.98892 17.997 4.13892 17.426C2.90192 15.947 2.24902 14.08 2.24902 12.001C2.24902 6.84798 6.25902 3.25 11.999 3.25C17.739 3.25 21.749 6.84898 21.749 12.001C21.749 17.153 17.739 20.752 11.999 20.752C10.812 20.752 9.67398 20.591 8.60498 20.2729C7.24198 21.4599 5.36393 21.75 3.85693 21.75ZM3.47803 20.2429C3.48003 20.2429 3.48189 20.2429 3.48389 20.2429C3.48089 20.2439 3.47903 20.2439 3.47803 20.2429ZM12 4.75C7.143 4.75 3.75 7.73198 3.75 12.001C3.75 13.837 4.35498 15.4629 5.50098 16.7029C5.65598 16.8709 5.72692 17.1009 5.69092 17.3279C5.52292 18.3989 4.99511 19.4119 4.18311 20.2429C5.34311 20.2009 6.90304 19.9339 7.86304 18.9099C8.06404 18.6939 8.37603 18.6171 8.65503 18.7141C9.69003 19.0721 10.815 19.2529 12 19.2529C16.857 19.2529 20.25 16.271 20.25 12.002C20.25 7.73295 16.857 4.75 12 4.75ZM12.71 13.116C12.713 13.108 12.7889 12.921 13.3459 12.552C14.3289 11.897 14.769 10.958 14.584 9.90601C14.397 8.84601 13.528 7.97699 12.47 7.79199C11.693 7.65399 10.908 7.86499 10.313 8.36499C9.71799 8.86499 9.375 9.59798 9.375 10.376C9.375 10.79 9.711 11.126 10.125 11.126C10.539 11.126 10.875 10.79 10.875 10.376C10.875 10.043 11.0211 9.72904 11.2771 9.51404C11.5371 9.29604 11.874 9.20902 12.21 9.27002C12.652 9.34702 13.0289 9.72502 13.1069 10.166C13.1569 10.452 13.1499 10.88 12.5139 11.303C12.0849 11.588 11.4921 12.035 11.2881 12.636C11.1571 13.023 11.366 13.4321 11.751 13.5701C11.832 13.5991 11.9141 13.613 11.9961 13.613C12.3051 13.612 12.597 13.418 12.71 13.116ZM13.02 15.5C13.02 14.948 12.573 14.5 12.02 14.5H12.01C11.458 14.5 11.0149 14.948 11.0149 15.5C11.0149 16.052 11.468 16.5 12.02 16.5C12.572 16.5 13.02 16.052 13.02 15.5Z" fill="currentColor"/>
</svg>

<svg xmlns="http://www.w3.org/2000/svg" width="24" height="24" fill="none"><path fill="currentColor" d="M3.857 21.75c-.145 0-.286-.002-.424-.007a1.207 1.207 0 0 1-1.109-.815 1.221 1.221 0 0 1 .36-1.347c.932-.752 1.305-1.584 1.455-2.155-1.237-1.479-1.89-3.346-1.89-5.425 0-5.153 4.01-8.751 9.75-8.751s9.75 3.599 9.75 8.751c0 5.152-4.01 8.751-9.75 8.751-1.187 0-2.325-.161-3.394-.48-1.363 1.188-3.241 1.478-4.748 1.478Zm-.379-1.507h.006-.006ZM12 4.75c-4.857 0-8.25 2.982-8.25 7.251 0 1.836.605 3.462 1.751 4.702a.749.749 0 0 1 .19.625c-.168 1.07-.696 2.084-1.508 2.915 1.16-.042 2.72-.31 3.68-1.333a.748.748 0 0 1 .792-.196c1.035.358 2.16.539 3.345.539 4.857 0 8.25-2.982 8.25-7.251 0-4.27-3.393-7.252-8.25-7.252Zm.71 8.366c.003-.008.079-.195.636-.564.983-.655 1.423-1.594 1.238-2.646a2.645 2.645 0 0 0-2.114-2.114 2.627 2.627 0 0 0-3.095 2.584.75.75 0 0 0 1.5 0A1.126 1.126 0 0 1 12.21 9.27c.442.077.819.455.897.896.05.286.043.714-.593 1.137-.43.285-1.022.732-1.226 1.333a.74.74 0 0 0 .463.934.723.723 0 0 0 .245.043.77.77 0 0 0 .714-.497Zm.31 2.384a1 1 0 0 0-1-1h-.01a.996.996 0 0 0-.995 1c0 .552.453 1 1.005 1a1 1 0 0 0 1-1Z"/></svg>
